src/assets/icons/info.svg

<svg fill="none" height="23" viewBox="0 0 23 23" width="23" xmlns="http://www.w3.org/2000/svg"><path d="m11.5.700012c-5.96429 0-10.799988 4.835698-10.799988 10.799988 0 5.9643 4.835698 10.8 10.799988 10.8 5.9643 0 10.8-4.8357 10.8-10.8 0-5.96429-4.8357-10.799988-10.8-10.799988zm.9 16.199988h-1.8v-6.3h1.8zm-.9-8.54999c-.7452 0-1.35-.6048-1.35-1.35s.6048-1.35 1.35-1.35 1.35.6048 1.35 1.35-.6048 1.35-1.35 1.35z" fill="#000"/></svg>

<svg width="23" height="23" viewBox="0 0 23 23" fill="none" xmlns="http://www.w3.org/2000/svg">
<path d="M11.5 0.700012C5.53571 0.700012 0.700012 5.53571 0.700012 11.5C0.700012 17.4643 5.53571 22.3 11.5 22.3C17.4643 22.3 22.3 17.4643 22.3 11.5C22.3 5.53571 17.4643 0.700012 11.5 0.700012ZM12.4 16.9H10.6V10.6H12.4V16.9ZM11.5 8.35001C10.7548 8.35001 10.15 7.74521 10.15 7.00001C10.15 6.25481 10.7548 5.65001 11.5 5.65001C12.2452 5.65001 12.85 6.25481 12.85 7.00001C12.85 7.74521 12.2452 8.35001 11.5 8.35001Z" fill="black"/>
</svg>
